X: 1
T: Cookie's Hora   [C,Cm]
R: zhok, horra
S: Printed page of unknown origin at Watertown MA Klezmer Jam session
Z: 2019 John Chambers <jc:trillian.mit.edu>
M: 3/4
L: 1/8
K: C
"A"|:\
"C"g3a _b2 | ag3 g2 | c'z zg c'g | fe- e4 |\
"G7"g3f ag | f3e de |[1 "C"c4 e2 | g4 c'2 :|[2 "C"c3G cG | c6 ||
[K:Cm]\
"B"|:\
"Cm"G,2C2 D2 | E3D C2 | E3D C2 | EED2 C2 |\
G,2C2 D2 |[1 E2D2C2 | "(G)"G4 G2 | "G"=AG ^FE DC :|
[2 "Cm"E3D "(G)"C=B, | "Cm"C2zG, "(G)"ED | "Cm"C2z2 z2 ||[K:=B=e=A]\
[K:_E^F] "C"|:\
"Cm"G6 | "D"^F4 A2 | "G"G3F ED | "Cm"C2z2 z2 |\
G6 | "D"F4 A2 |
"G"G6 | "Cm"cB cz z2 |\
"Cm"G6 | "D"F4 A2 | "G"G3F ED | "Cm"C2zG, =B,C |\
"G"D2F GF | GE2D =B,D | "Cm"C2 zc GE | C2z2 z2 :|

%%sep 1 1 500
%%sep 1 1 500

